X:1
T: The Humors of Cavan
C:
R:Jig
Q:180
K:A
M:6/8
L:1/16
E2|E2A2A2 A4f2|e2c2A2 d2c2d2|c2d2e2 e2f2g2|a2B2B2 B4c2|E2A2A2 A4f2|e2c2A2 d2c2d2|c2d2e2 e2f2g2|a2A2A2 A4E2|
E2A2A2 A4f2|e2c2A2 d2c2d2|c2d2e2 e2f2g2|a2B2B2 B4c2|E2A2A2 A4f2|e2c2A2 d2c2d2|c2d2e2 e2f2g2|a2A2A2 A4d2|
c2B2A2 B2A2F2|F2B2B2 B4d2|c2B2A2 B2A2F2|E2F2A2 A4d2|c2B2A2 B2A2F2|d2c2d2 f2g2a2|e2c2A2 B2A2F2|E2F2A2 A4d2|
c2B2A2 B2A2F2|F2B2B2 B4d2|c2B2A2 B2A2F2|E2F2A2 A4d2|c2B2A2 B2A2F2|d2c2d2 f2g2a2|e2c2A2 B2A2F2|E2F2A2 A4||
